!!!COM: Music21
!!!OTL: O farrovello
!!!OMV: pezas_pasodobles_o-farrovello_o-farrovello-partitura.musicxml
**kern
*I"Bagpipes
*I'Bag
*clefG^2
*k[]
*M4/4
=1
!LO:TX:a:t=Vivace
*MM138
!LO:TX:a:t=[quarter]=138
2r
8r
8ggL
8gg
8ffJ
=||
8eeL
8dd
8ee
8ffJ
8ggL
8ff
8gg
8aaJ
=
8cccL
8ggJ
[4ee
8eeL]
8ccc
8ccc
8ggJ
=
8aaL
8ffJ
[4dd
8ddL]
8gg
8gg
8ffJ
=
16eeLL
16dd
16ee
16ffJ
8gg
8ffJ
8eeL
8gg
8gg
8ffJ
=
8eeL
8dd
8ee
8ffJ
8ggL
8ff
8gg
8aaJ
!!linebreak:original
=
8cccL
8gg
8ee
8ggJ
8ccL
8gg
8ccc
8ggJ
=
8aaL
8ff
8dd
8aaJ
8ggL
8ff
8bb
8ggJ
=
[2ccc
8cccL]
8gg
8gg
8ffJ
=||
8eeL
8dd
8ee
8ffJ
8ggL
8ff
8gg
8aaJ
=
8cccL
8ggJ
[4ee
8eeL]
8ccc
8ccc
8ggJ
=
8aaL
8ffJ
[4dd
8ddL]
8gg
8gg
8ffJ
!!linebreak:original
=
16eeLL
16dd
16ee
16ffJ
8gg
8ffJ
8eeL
8gg
8gg
8ffJ
=
8eeL
8dd
8ee
8ffJ
8ggL
8ff
8gg
8aaJ
!!linebreak:original
=
8cccL
8gg
8ee
8ggJ
8ccL
8gg
8ccc
8ggJ
=
8aaL
8ff
8dd
8aaJ
8ggL
8ff
8bb
8ggJ
=
[2ccc
8cccL]
8ee
8gg
8cccJ
=||
16bbLL
16ccc
16bb
16aaJ
8bb
8aaJ
8ggL
8aa
8bb
8aaJ
=
4aa
8ggL
8ffJ
8ggL
8ee
8aa
8ggJ
!!linebreak:original
=
4gg
8ffL
8eeJ
8ffL
8dd
8ee
8ffJ
=
4aa
8ggL
8aaJ
8ggL
8ee
8gg
8cccJ
=
16bbLL
16ccc
16bb
16aaJ
8bb
8aaJ
8ggL
8aa
8bb
8aaJ
=
4aa
8ggL
8ffJ
8ggL
8ff
8ee
8ggJ
=
8aaL
8ff
8gg
8aaJ
8bbL
8gg
8aa
8bbJ
=
[2ccc
8cccL]
8ee
8gg
8cccJ
!!linebreak:original
=||
16bbLL
16ccc
16bb
16aaJ
8bb
8aaJ
8ggL
8aa
8bb
8aaJ
=
4aa
8ggL
8ffJ
8ggL
8ee
8aa
8ggJ
!!linebreak:original
=
4gg
8ffL
8eeJ
8ffL
8dd
8ee
8ffJ
=
4aa
8ggL
8aaJ
8ggL
8ee
8gg
8cccJ
=
16bbLL
16ccc
16bb
16aaJ
8bb
8aaJ
8ggL
8aa
8bb
8aaJ
=
4aa
8ggL
8ffJ
8ggL
8ff
8ee
8ggJ
=
8aaL
8ff
8gg
8aaJ
8bbL
8gg
8aa
8bbJ
!!linebreak:original
=
[2ccc
8cccL]
8gg
8gg
8ffJ
==
*-
